sendgrid.svg

<?xml version="1.0" encoding="UTF-8" standalone="no"?><!DOCTYPE svg PUBLIC "-//W3C//DTD SVG 1.1//EN" "http://www.w3.org/Graphics/SVG/1.1/DTD/svg11.dtd"><svg width="100%" height="100%" viewBox="0 0 2500 2500" version="1.1" xmlns="http://www.w3.org/2000/svg" xmlns:xlink="http://www.w3.org/1999/xlink" xml:space="preserve" xmlns:serif="http://www.serif.com/" style="fill-rule:evenodd;clip-rule:evenodd;stroke-linejoin:round;stroke-miterlimit:2;"><path d="M1666.67,833.33l-1666.67,0l0,1666.67l1666.67,0l-0,-1666.67Z" style="fill:#9de1f3;fill-rule:nonzero;"/><rect x="833.34" y="0" width="1666.66" height="1666.66" style="fill:#27b4e1;fill-rule:nonzero;"/><path d="M0,2500l833.33,0l0,-833.33l-833.33,-0l0,833.33Zm1666.67,-1666.67l833.33,0l0,-833.33l-833.33,0l-0,833.33Z" style="fill:#1a82e2;fill-rule:nonzero;"/><rect x="833.34" y="833.34" width="833.33" height="833.33" style="fill:#239fd7;fill-rule:nonzero;"/><g id="sendgrid"></g></svg>

<?xml version="1.0" encoding="UTF-8" standalone="no"?>
<!DOCTYPE svg PUBLIC "-//W3C//DTD SVG 1.1//EN" "http://www.w3.org/Graphics/SVG/1.1/DTD/svg11.dtd">
<svg width="100%" height="100%" viewBox="0 0 2500 2500" version="1.1" xmlns="http://www.w3.org/2000/svg" xmlns:xlink="http://www.w3.org/1999/xlink" xml:space="preserve" xmlns:serif="http://www.serif.com/" style="fill-rule:evenodd;clip-rule:evenodd;stroke-linejoin:round;stroke-miterlimit:2;">
    <g transform="matrix(1,0,0,1,-8.00305,-2.02458)">
        <g transform="matrix(0.8,0,0,0.8,258.003,252.025)">
            <rect x="0" y="833.33" width="1666.67" height="1666.67" style="fill:rgb(157,225,243);fill-rule:nonzero;"/>
        </g>
        <g transform="matrix(0.8,0,0,0.8,258.003,252.025)">
            <rect x="833.34" y="0" width="1666.66" height="1666.66" style="fill:rgb(39,180,225);"/>
        </g>
        <g transform="matrix(0.8,0,0,0.8,258.003,252.025)">
            <path d="M0,2500L833.33,2500L833.33,1666.67L0,1666.67L0,2500ZM1666.67,833.33L2500,833.33L2500,-0L1666.67,-0L1666.67,833.33Z" style="fill:rgb(26,130,226);fill-rule:nonzero;"/>
        </g>
        <g transform="matrix(0.8,0,0,0.8,258.003,252.025)">
            <rect x="833.34" y="833.34" width="833.33" height="833.33" style="fill:rgb(35,159,215);"/>
        </g>
    </g>
</svg>
